fuzz/corpus/xmp_reader/lightroom.xmp
<x:xmpmeta xmlns:x="adobe:ns:meta/" x:xmptk="Adobe XMP Core 7.0-c000 1.000000, 0000/00/00-00:00:00        ">
 <rdf:RDF xmlns:rdf="http://www.w3.org/1999/02/22-rdf-syntax-ns#">
  <rdf:Description rdf:about=""
    xmlns:xmp="http://ns.adobe.com/xap/1.0/"
    xmlns:dc="http://purl.org/dc/elements/1.1/"
    xmlns:lr="http://ns.adobe.com/lightroom/1.0/"
    xmlns:photoshop="http://ns.adobe.com/photoshop/1.0/"
    xmlns:tiff="http://ns.adobe.com/tiff/1.0/"
    xmlns:crs="http://ns.adobe.com/camera-raw-settings/1.0/"
   xmp:Rating="4"
   xmp:Label="Green"
   xmp:CreateDate="2026-05-14T06:41:09.250"
   photoshop:City="Roberval"
   tiff:Make="SONY"
   tiff:Model="ILCE-7RM4"
   crs:Version="15.0"
   crs:ProcessVersion="11.0"
   crs:WhiteBalance="As Shot"
   crs:Temperature="5200"
   crs:Tint="+8"
   crs:Exposure2012="+0.35"
   crs:Contrast2012="+12"
   crs:HasSettings="True">
   <dc:title>
    <rdf:Alt>
     <rdf:li xml:lang="x-default">Heron at dawn</rdf:li>
    </rdf:Alt>
   </dc:title>
   <dc:subject>
    <rdf:Bag>
     <rdf:li>Heron</rdf:li>
     <rdf:li>Quebec</rdf:li>
    </rdf:Bag>
   </dc:subject>
   <lr:hierarchicalSubject>
    <rdf:Bag>
     <rdf:li>Fauna|Birds|Heron</rdf:li>
     <rdf:li>Places|Canada|Quebec</rdf:li>
    </rdf:Bag>
   </lr:hierarchicalSubject>
   <crs:ToneCurvePV2012>
    <rdf:Seq>
     <rdf:li>0, 0</rdf:li>
     <rdf:li>64, 58</rdf:li>
     <rdf:li>255, 255</rdf:li>
    </rdf:Seq>
   </crs:ToneCurvePV2012>
  </rdf:Description>
 </rdf:RDF>
</x:xmpmeta>
